(.../EAGLE-7.2.0/pcb-gcode/pcb-gcode.ulp)
(Copyright 2005 - 2012 by John Johnson)
(See readme.txt for licensing terms.)
(This file generated from the board:)
(.../attiny84_3Transistor/attiny85_4Transistor.brd)
(Current profile is .../EAGLE-7.2.0/pcb-gcode/profiles/emc.pp  )
(This file generated 9/2/2015 7:50:10 PM)
(Settings from pcb-machine.h)
(spindle on time = 3.0000)
(tool change at 10.0000 10.0000 25.4000 )
(feed rate xy = F0.00  )
(feed rate z  = F0.00  )
(Z Axis Settings)
(  High     Up        Down     Drill)
(5.0000 	3.0000 	-0.2500 	-0.2000 )
(Settings from pcb-defaults.h)
(isolate min = 0.0025)
(isolate max = 0.5080)
(isolate step = 0.1270)
(Generated top drill, top stencil, )
(Unit of measure: mm)
(Beginning of every file)
(Beginning of every top file)
(Stencil Begin)
(Top Stencil Begin)
(Metric Mode)
G21
(Absolute Coordinates)
G90 G61.1 G40 G49
S24000
G00 Z5.0000 
G00 X0.0000 Y0.0000 
M03
G04 P3.000000
G00 Z3.0000 
G00 X7.8981 Y8.9794 
G01 Z-0.2500 F100.00 
G01 X7.4731 Y8.9794 F500.00 
G01 X7.4731 Y9.8044 
G01 X7.8981 Y9.8044 
G01 X7.8981 Y8.9794 
G01 X7.4731 Y8.9794 
G00 Z3.0000 
G00 X6.0981 Y8.9794 
G01 Z-0.2500 F100.00 
G01 X5.6731 Y8.9794 F500.00 
G01 X5.6731 Y9.8044 
G01 X6.0981 Y9.8044 
G01 X6.0981 Y8.9794 
G01 X5.6731 Y8.9794 
G00 Z3.0000 
G00 X24.3683 Y13.7792 
G01 Z-0.2500 F100.00 
G01 X24.3683 Y13.1542 F500.00 
G01 X23.3433 Y13.1542 
G01 X23.3433 Y13.7792 
G01 X24.3683 Y13.7792 
G01 X24.3683 Y13.1542 
G00 Z3.0000 
G00 X26.5683 Y12.8292 
G01 Z-0.2500 F100.00 
G01 X26.5683 Y12.2042 F500.00 
G01 X25.5433 Y12.2042 
G01 X25.5433 Y12.8292 
G01 X26.5683 Y12.8292 
G01 X26.5683 Y12.2042 
G00 Z3.0000 
G00 X24.3683 Y11.8792 
G01 Z-0.2500 F100.00 
G01 X24.3683 Y11.2542 F500.00 
G01 X23.3433 Y11.2542 
G01 X23.3433 Y11.8792 
G01 X24.3683 Y11.8792 
G01 X24.3683 Y11.2542 
G00 Z3.0000 
G00 X18.6402 Y10.2756 
G01 Z-0.2500 F100.00 
G01 X19.2652 Y10.2756 F500.00 
G01 X19.2652 Y9.2506 
G01 X18.6402 Y9.2506 
G01 X18.6402 Y10.2756 
G01 X19.2652 Y10.2756 
G00 Z3.0000 
G00 X19.5902 Y12.4756 
G01 Z-0.2500 F100.00 
G01 X20.2152 Y12.4756 F500.00 
G01 X20.2152 Y11.4506 
G01 X19.5902 Y11.4506 
G01 X19.5902 Y12.4756 
G01 X20.2152 Y12.4756 
G00 Z3.0000 
G00 X20.5402 Y10.2756 
G01 Z-0.2500 F100.00 
G01 X21.1652 Y10.2756 F500.00 
G01 X21.1652 Y9.2506 
G01 X20.5402 Y9.2506 
G01 X20.5402 Y10.2756 
G01 X21.1652 Y10.2756 
G00 Z3.0000 
G00 X13.6524 Y25.8983 
G01 Z-0.2500 F100.00 
G01 X13.6524 Y26.5233 F500.00 
G01 X14.6774 Y26.5233 
G01 X14.6774 Y25.8983 
G01 X13.6524 Y25.8983 
G01 X13.6524 Y26.5233 
G00 Z3.0000 
G00 X11.4524 Y26.8483 
G01 Z-0.2500 F100.00 
G01 X11.4524 Y27.4733 F500.00 
G01 X12.4774 Y27.4733 
G01 X12.4774 Y26.8483 
G01 X11.4524 Y26.8483 
G01 X11.4524 Y27.4733 
G00 Z3.0000 
G00 X13.6524 Y27.7983 
G01 Z-0.2500 F100.00 
G01 X13.6524 Y28.4233 F500.00 
G01 X14.6774 Y28.4233 
G01 X14.6774 Y27.7983 
G01 X13.6524 Y27.7983 
G01 X13.6524 Y28.4233 
G00 Z3.0000 
G00 X7.3786 Y21.6311 
G01 Z-0.2500 F100.00 
G01 X7.3786 Y22.2561 F500.00 
G01 X8.4036 Y22.2561 
G01 X8.4036 Y21.6311 
G01 X7.3786 Y21.6311 
G01 X7.3786 Y22.2561 
G00 Z3.0000 
G00 X5.1786 Y22.5811 
G01 Z-0.2500 F100.00 
G01 X5.1786 Y23.2061 F500.00 
G01 X6.2036 Y23.2061 
G01 X6.2036 Y22.5811 
G01 X5.1786 Y22.5811 
G01 X5.1786 Y23.2061 
G00 Z3.0000 
G00 X7.3786 Y23.5311 
G01 Z-0.2500 F100.00 
G01 X7.3786 Y24.1561 F500.00 
G01 X8.4036 Y24.1561 
G01 X8.4036 Y23.5311 
G01 X7.3786 Y23.5311 
G01 X7.3786 Y24.1561 
G00 Z3.0000 
G00 X13.6571 Y15.4091 
G01 Z-0.2500 F100.00 
G01 X14.5821 Y15.4091 F500.00 
G01 X14.5821 Y14.2841 
G01 X13.6571 Y14.2841 
G01 X13.6571 Y15.4091 
G01 X14.5821 Y15.4091 
G00 Z3.0000 
G00 X15.5571 Y15.4091 
G01 Z-0.2500 F100.00 
G01 X16.4821 Y15.4091 F500.00 
G01 X16.4821 Y14.2841 
G01 X15.5571 Y14.2841 
G01 X15.5571 Y15.4091 
G01 X16.4821 Y15.4091 
G00 Z3.0000 
G00 X14.4302 Y12.6782 
G01 Z-0.2500 F100.00 
G01 X15.3552 Y12.6782 F500.00 
G01 X15.3552 Y11.5532 
G01 X14.4302 Y11.5532 
G01 X14.4302 Y12.6782 
G01 X15.3552 Y12.6782 
G00 Z3.0000 
G00 X16.3302 Y12.6782 
G01 Z-0.2500 F100.00 
G01 X17.2552 Y12.6782 F500.00 
G01 X17.2552 Y11.5532 
G01 X16.3302 Y11.5532 
G01 X16.3302 Y12.6782 
G01 X17.2552 Y12.6782 
G00 Z3.0000 
G00 X19.7403 Y26.1118 
G01 Z-0.2500 F100.00 
G01 X19.7403 Y27.0368 F500.00 
G01 X20.8653 Y27.0368 
G01 X20.8653 Y26.1118 
G01 X19.7403 Y26.1118 
G01 X19.7403 Y27.0368 
G00 Z3.0000 
G00 X19.7403 Y28.0118 
G01 Z-0.2500 F100.00 
G01 X19.7403 Y28.9368 F500.00 
G01 X20.8653 Y28.9368 
G01 X20.8653 Y28.0118 
G01 X19.7403 Y28.0118 
G01 X19.7403 Y28.9368 
G00 Z3.0000 
G00 X16.4910 Y25.9515 
G01 Z-0.2500 F100.00 
G01 X16.4910 Y26.8765 F500.00 
G01 X17.7160 Y26.8765 
G01 X17.7160 Y25.9515 
G01 X16.4910 Y25.9515 
G01 X16.4910 Y26.8765 
G00 Z3.0000 
G00 X16.4910 Y27.8515 
G01 Z-0.2500 F100.00 
G01 X16.4910 Y28.7765 F500.00 
G01 X17.7160 Y28.7765 
G01 X17.7160 Y27.8515 
G01 X16.4910 Y27.8515 
G01 X16.4910 Y28.7765 
G00 Z3.0000 
G00 X18.6443 Y8.3861 
G01 Z-0.2500 F100.00 
G01 X19.5693 Y8.3861 F500.00 
G01 X19.5693 Y7.1611 
G01 X18.6443 Y7.1611 
G01 X18.6443 Y8.3861 
G01 X19.5693 Y8.3861 
G00 Z3.0000 
G00 X20.5443 Y8.3861 
G01 Z-0.2500 F100.00 
G01 X21.4693 Y8.3861 F500.00 
G01 X21.4693 Y7.1611 
G01 X20.5443 Y7.1611 
G01 X20.5443 Y8.3861 
G01 X21.4693 Y8.3861 
G00 Z3.0000 
G00 X15.2902 Y23.0423 
G01 Z-0.2500 F100.00 
G01 X14.3652 Y23.0423 F500.00 
G01 X14.3652 Y24.1673 
G01 X15.2902 Y24.1673 
G01 X15.2902 Y23.0423 
G01 X14.3652 Y23.0423 
G00 Z3.0000 
G00 X13.3902 Y23.0423 
G01 Z-0.2500 F100.00 
G01 X12.4652 Y23.0423 F500.00 
G01 X12.4652 Y24.1673 
G01 X13.3902 Y24.1673 
G01 X13.3902 Y23.0423 
G01 X12.4652 Y23.0423 
G00 Z3.0000 
G00 X18.5091 Y15.3829 
G01 Z-0.2500 F100.00 
G01 X19.4341 Y15.3829 F500.00 
G01 X19.4341 Y14.1579 
G01 X18.5091 Y14.1579 
G01 X18.5091 Y15.3829 
G01 X19.4341 Y15.3829 
G00 Z3.0000 
G00 X20.4091 Y15.3829 
G01 Z-0.2500 F100.00 
G01 X21.3341 Y15.3829 F500.00 
G01 X21.3341 Y14.1579 
G01 X20.4091 Y14.1579 
G01 X20.4091 Y15.3829 
G01 X21.3341 Y15.3829 
G00 Z3.0000 
G00 X9.7854 Y21.5827 
G01 Z-0.2500 F100.00 
G01 X9.7854 Y22.5077 F500.00 
G01 X11.0104 Y22.5077 
G01 X11.0104 Y21.5827 
G01 X9.7854 Y21.5827 
G01 X9.7854 Y22.5077 
G00 Z3.0000 
G00 X9.7854 Y23.4827 
G01 Z-0.2500 F100.00 
G01 X9.7854 Y24.4077 F500.00 
G01 X11.0104 Y24.4077 
G01 X11.0104 Y23.4827 
G01 X9.7854 Y23.4827 
G01 X9.7854 Y24.4077 
G00 Z3.0000 
G00 X28.9184 Y29.6320 
G01 Z-0.2500 F100.00 
G01 X28.9184 Y27.8226 F500.00 
G01 X28.2266 Y27.8226 
G01 X28.2266 Y29.6320 
G01 X28.9184 Y29.6320 
G01 X28.9184 Y27.8226 
G00 Z3.0000 
G00 X28.9184 Y20.6150 
G01 Z-0.2500 F100.00 
G01 X28.9184 Y18.8056 F500.00 
G01 X28.2266 Y18.8056 
G01 X28.2266 Y20.6150 
G01 X28.9184 Y20.6150 
G01 X28.9184 Y18.8056 
G00 Z3.0000 
G00 X24.1178 Y20.6150 
G01 Z-0.2500 F100.00 
G01 X24.1178 Y18.8056 F500.00 
G01 X23.4260 Y18.8056 
G01 X23.4260 Y20.6150 
G01 X24.1178 Y20.6150 
G01 X24.1178 Y18.8056 
G00 Z3.0000 
G00 X24.1178 Y29.6320 
G01 Z-0.2500 F100.00 
G01 X24.1178 Y27.8226 F500.00 
G01 X23.4260 Y27.8226 
G01 X23.4260 Y29.6320 
G01 X24.1178 Y29.6320 
G01 X24.1178 Y27.8226 
G00 Z3.0000 
G00 X8.7365 Y11.3444 
G01 Z-0.2500 F100.00 
G01 X8.7365 Y11.5790 F500.00 
G01 X10.5713 Y11.5790 
G01 X10.5713 Y11.3444 
G01 X8.7365 Y11.3444 
G01 X8.7365 Y11.5790 
G00 Z3.0000 
G00 X8.7365 Y12.6144 
G01 Z-0.2500 F100.00 
G01 X8.7365 Y12.8490 F500.00 
G01 X10.5713 Y12.8490 
G01 X10.5713 Y12.6144 
G01 X8.7365 Y12.6144 
G01 X8.7365 Y12.8490 
G00 Z3.0000 
G00 X8.7365 Y13.8844 
G01 Z-0.2500 F100.00 
G01 X8.7365 Y14.1190 F500.00 
G01 X10.5713 Y14.1190 
G01 X10.5713 Y13.8844 
G01 X8.7365 Y13.8844 
G01 X8.7365 Y14.1190 
G00 Z3.0000 
G00 X8.7365 Y15.1544 
G01 Z-0.2500 F100.00 
G01 X8.7365 Y15.3890 F500.00 
G01 X10.5713 Y15.3890 
G01 X10.5713 Y15.1544 
G01 X8.7365 Y15.1544 
G01 X8.7365 Y15.3890 
G00 Z3.0000 
G00 X2.0055 Y15.1544 
G01 Z-0.2500 F100.00 
G01 X2.0055 Y15.3890 F500.00 
G01 X3.8403 Y15.3890 
G01 X3.8403 Y15.1544 
G01 X2.0055 Y15.1544 
G01 X2.0055 Y15.3890 
G00 Z3.0000 
G00 X2.0055 Y13.8844 
G01 Z-0.2500 F100.00 
G01 X2.0055 Y14.1190 F500.00 
G01 X3.8403 Y14.1190 
G01 X3.8403 Y13.8844 
G01 X2.0055 Y13.8844 
G01 X2.0055 Y14.1190 
G00 Z3.0000 
G00 X2.0055 Y12.6144 
G01 Z-0.2500 F100.00 
G01 X2.0055 Y12.8490 F500.00 
G01 X3.8403 Y12.8490 
G01 X3.8403 Y12.6144 
G01 X2.0055 Y12.6144 
G01 X2.0055 Y12.8490 
G00 Z3.0000 
G00 X2.0055 Y11.3444 
G01 Z-0.2500 F100.00 
G01 X2.0055 Y11.5790 F500.00 
G01 X3.8403 Y11.5790 
G01 X3.8403 Y11.3444 
G01 X2.0055 Y11.3444 
G01 X2.0055 Y11.5790 
G00 Z3.0000 
G00 X8.1477 Y1.7196 
G01 Z-0.2500 F100.00 
G01 X8.1477 Y2.5638 F500.00 
G01 X10.0079 Y2.5638 
G01 X10.0079 Y1.7196 
G01 X8.1477 Y1.7196 
G01 X8.1477 Y2.5638 
G00 Z3.0000 
G00 X8.1477 Y4.0310 
G01 Z-0.2500 F100.00 
G01 X8.1477 Y4.8752 F500.00 
G01 X10.0079 Y4.8752 
G01 X10.0079 Y4.0310 
G01 X8.1477 Y4.0310 
G01 X8.1477 Y4.8752 
G00 Z3.0000 
G00 X8.1477 Y6.3424 
G01 Z-0.2500 F100.00 
G01 X8.1477 Y7.1866 F500.00 
G01 X10.0079 Y7.1866 
G01 X10.0079 Y6.3424 
G01 X8.1477 Y6.3424 
G01 X8.1477 Y7.1866 
G00 Z3.0000 
G00 X1.9675 Y2.8406 
G01 Z-0.2500 F100.00 
G01 X1.9675 Y6.0656 F500.00 
G01 X3.7925 Y6.0656 
G01 X3.7925 Y2.8406 
G01 X1.9675 Y2.8406 
G01 X1.9675 Y6.0656 
(Stencil End)
(Top Stencil End)
(End of every top file)
(End of every file)
G00 Z3.0000 
G00 Z5.0000 
M05
M02
